X: 72
T: Da shengchan
%%abc-version 2.0
%%abcx-abcm2ps-target-version 5.9.1 (29 Sep 2008)
%%abc-creator hum2abc beta
%%abcx-conversion-date 2013/10/02 07:52:29
%%abc-edited-by Helmut Schaffrath
%%humdrum-veritas 2955464155
%%humdrum-veritas-data 1851112797
%%continueall 1
%%barnumbers 0
L: 1/8
M: 2/4
K: F
d2d c [I:setbarnb 1]| 
d2d c | 
c df2 | 
f dc2 | 
c d f f | 
f d c f | 
d c A G | 
F4 | 
c DF2 | 
GB2d | 
c B G B | 
c4 | 
cc2d | 
f2f d | 
B2c2 | 
B GF2 |]  



